X:110
T:score196
L:1/8
Q:1/4=96
M:2/4
I:linebreak $
K:C
 g2 fe | d2 ed | c2 de | G>A G z | g2 fe | a2 ge |$ fg/f/ ef/e/ | d2 z2 |] %8
